static/UTA.svg

<?xml version="1.0" encoding="UTF-8" standalone="no"?>
<svg width="150px" height="150px" viewBox="0 0 150 150" version="1.1" xmlns="http://www.w3.org/2000/svg" xmlns:xlink="http://www.w3.org/1999/xlink">
    <!-- Generator: Sketch 39.1 (31720) - http://www.bohemiancoding.com/sketch -->
    <title>UTA</title>
    <desc>Created with Sketch.</desc>
    <defs>
        <polygon id="path-1" points="120.345528 80.0516248 120.345528 0.0859930996 0.000298224534 0.0859930996 0.000298224534 80.0516248 120.345528 80.0516248"></polygon>
    </defs>
    <g id="Page-1" stroke="none" stroke-width="1" fill="none" fill-rule="evenodd">
        <g id="UTA">
            <g id="Page-1">
                <g id="Group-3" transform="translate(15.000000, 34.195417)">
                    <mask id="mask-2" fill="white">
                        <use xlink:href="#path-1"></use>
                    </mask>
                    <g id="Clip-2"></g>
                    <path d="M43.6037073,43.6474118 L62.6065746,0.0847985397 L120.345827,0.0847985397 L109.88411,24.0775342 L61.1154519,24.0775342 C58.9980577,28.9214746 48.5124831,52.9739382 47.2987093,55.7632356 L47.2987093,56.8831355 C47.2987093,66.9771666 38.7784343,80.0516248 23.6435393,80.0516248 C10.6081449,80.0516248 0.000298224534,69.423028 0.000298224534,56.3724611 C0.000298224534,43.312935 10.6081449,32.6962839 23.6435393,32.6962839 C31.8745364,32.6962839 39.5836406,37.1400467 43.6037073,43.6474118" id="Fill-1" fill="#FEFEFE" mask="url(#mask-2)"></path>
                </g>
                <path d="M16.4153736,91.622973 C16.6897402,97.4942349 19.2306132,102.753285 23.1641948,106.584836 C27.3512673,102.8817 30.0919508,97.5718813 30.3842108,91.622973 L16.4153736,91.622973 Z" id="Fill-4" fill="#0B223E"></path>
                <path d="M32.3459318,91.622973 C32.0536717,98.0735964 29.1340536,103.846307 24.6398098,107.892879 C28.2214865,110.807605 32.7336237,112.641254 37.6752042,112.856275 L37.6752042,91.622973 L32.3459318,91.622973 Z" id="Fill-6" fill="#F9A11A"></path>
                <path d="M16.4067251,89.6716594 L30.3904735,89.6716594 C30.1399649,83.6540639 27.3962992,78.2755579 23.1644931,74.5515174 C19.1951245,78.4159187 16.6453048,83.7436559 16.4067251,89.6716594" id="Fill-8" fill="#0B223E"></path>
                <path d="M24.6401081,73.243773 C29.1761032,77.3202086 32.0987036,83.1526474 32.34623,89.671958 L37.6755024,89.671958 L37.6755024,68.2714174 C32.7339219,68.4864382 28.2277492,70.3200876 24.6401081,73.243773" id="Fill-10" fill="#F9A11A"></path>
                <path d="M60.8827392,91.622973 L46.9168843,91.622973 C47.2091443,97.5718813 49.9468455,102.8817 54.133918,106.584836 C58.0734641,102.753285 60.6083726,97.4942349 60.8827392,91.622973" id="Fill-12" fill="#0B223E"></path>
                <path d="M44.9593384,91.622973 L39.6270838,91.622973 L39.6270838,112.856275 C44.565682,112.641254 49.074837,110.807605 52.6654604,107.892879 C48.1712167,103.846307 45.2486162,98.0735964 44.9593384,91.622973" id="Fill-14" fill="#2B5134"></path>
                <path d="M52.6654604,73.243773 C49.074837,70.3200876 44.565682,68.4864382 39.6270838,68.2714174 L39.6270838,89.671958 L44.9533739,89.671958 C45.2009003,83.1526474 48.1324475,77.3202086 52.6654604,73.243773" id="Fill-16" fill="#2B5134"></path>
                <path d="M78.5271937,35.6891988 L58.7549071,81.037679 C57.6007782,78.6007768 56.0380816,76.405773 54.1354091,74.5542052 C49.9065852,78.2782457 47.1599373,83.6567516 46.9124109,89.6743471 L60.8901948,89.6743471 L75.1870789,56.8657594 L116.956407,56.8657594 L126.186456,35.6891988 L78.5271937,35.6891988 Z" id="Fill-18" fill="#0B223E"></path>
                <polygon id="Fill-20" fill="#2B5134" points="123.964087 56.863669 133.197119 35.6871083 129.260555 35.6871083 120.030506 56.863669"></polygon>
                <rect id="Rectangle" x="0" y="0" width="150" height="150"></rect>
            </g>
        </g>
    </g>
</svg>

<svg xmlns="http://www.w3.org/2000/svg" xmlns:xlink="http://www.w3.org/1999/xlink" width="150" height="150"><defs><path id="A" d="M120.346 80.052V.086H0v79.966h120.345z"/></defs><g fill="none" fill-rule="evenodd"><g transform="translate(15 34.195)"><mask id="B" fill="#fff"><use xlink:href="#A"/></mask><path d="M43.604 43.647L62.607.085h57.74l-10.462 23.993h-48.77L47.3 55.763v1.12c0 10.094-8.52 23.168-23.655 23.168C10.608 80.052 0 69.423 0 56.372c0-13.06 10.608-23.676 23.643-23.676 8.23 0 15.94 4.444 19.96 10.95" fill="#fefefe" mask="url(#B)"/></g><path d="M16.415 91.623c.274 5.87 2.815 11.13 6.75 14.962 4.187-3.703 6.928-9.013 7.22-14.962h-13.97z" fill="#0b223e"/><path d="M32.346 91.623c-.292 6.45-3.212 12.223-7.706 16.27 3.582 2.915 8.094 4.748 13.035 4.963V91.623h-5.33z" fill="#f9a11a"/><path d="M16.407 89.672H30.4c-.25-6.018-2.994-11.396-7.226-15.12-3.97 3.864-6.52 9.192-6.758 15.12" fill="#0b223e"/><path d="M24.64 73.244c4.536 4.076 7.46 9.91 7.706 16.428h5.33v-21.4a22.09 22.09 0 0 0-13.035 4.972" fill="#f9a11a"/><path d="M60.883 91.623H46.917c.292 5.95 3.03 11.26 7.217 14.962 3.94-3.832 6.474-9.09 6.75-14.962" fill="#0b223e"/><path d="M44.96 91.623h-5.332v21.233c4.94-.215 9.448-2.05 13.038-4.963-4.494-4.047-7.417-9.82-7.706-16.27m7.705-18.38a22.11 22.11 0 0 0-13.038-4.972v21.4h5.326c.248-6.52 3.18-12.352 7.712-16.428" fill="#2b5134"/><path d="M78.527 35.69L58.755 81.038a22.43 22.43 0 0 0-4.619-6.483c-4.23 3.724-6.975 9.103-7.223 15.12H60.9l14.297-32.81h41.77l9.23-21.177h-47.66z" fill="#0b223e"/><path fill="#2b5134" d="M123.964 56.864l9.233-21.177h-3.937l-9.23 21.177z"/></g></svg>
